**kern	**text
*clefG2	*
*k[f#]	*
*M4/4	*
*MM210	*
=1	=1
1r	.
=2	=2
1r	.
=3	=3
1r	.
=4	=4
1r	.
=5	=5
1r	.
=6	=6
1r	.
=7	=7
1r	.
=8	=8
1r	.
=9	=9
1r	.
=10	=10
1r	.
=11	=11
1r	.
=12	=12
1r	.
=13	=13
1r	.
=14	=14
1r	.
=15	=15
1r	.
=16	=16
1r	.
=17	=17
1r	.
=18	=18
1r	.
=19	=19
1r	.
=20	=20
1r	.
=21	=21
1r	.
=22	=22
1r	.
=23	=23
1r	.
=24	=24
2r	.
4r	.
[4c	breath
=25	=25
8cL]	.
8B	shi
8d	ro
[8eJ	i
8eL]	.
8bJ	ya
8r	.
8a	ho
=26	=26
8aL	n
8gJ	wo
8r	.
[8f#	mi
8f#L]	.
8g	mi
8f#	ni
8dJ	a
=27	=27
8eL	te
8B	su
8d	ko
8eJ	shi
8eL	ni
8bJ	ya
8r	.
[8a	to
=28	=28
16aLL]	.
16aJJ	shi
4g	te
[8f#	a
16f#LL]	.
16f#J	i
8dJ	zu
8BL	su
8dJ	ru
=29	=29
4c'	u は
8dL	shi
8eJ	mi
8r	.
8bL	ko
8b	n
8aJ	da
=30	=30
8r	.
4g	ko
[8f#	no
8f#L]	.
8g	o
8f#	n
8dJ	do
=31	=31
4e'	ga
8dL	do
8d#XJ	a
8eL	o
8bJ	no
8r	.
[8a	ku
=32	=32
16aLL]	.
16aJJ	shi
4g	ta
[8dd	shu
16ddLL]	.
16ddJ	n
[8ddJ	ka
16ddLL]	.
16ddJ	n
8ddJ	ni
=33	=33
8aL	a
8b	fu
8dd	re
[8eeJ	so
4ee]	.
4bb	ni
=34	=34
8aaL	na
8gg	ru
8ff#	yo
8ggJ	ma
8ff#L	da
8ddJ	mi
8eeL	e
16ddL	na
16ddJJ	i
=35	=35
8r	.
8bL	me
8b-X	o
[8aJ	ko
8aL]	.
8g	ra
8a	shi
8gJ	te
=36	=36
8aL	no
8b-X	zo
8bn	mu
[8ddJ	so
8ddL]	.
[8ddJ	da
16ddLL]	.
16ddJ	tsu
8ddJ	se
=37	=37
8dd'L	n
8b	a
8dd	no
[8eeJ	hi
4ee]	.
4bb	chu
=38	=38
8aaL	cho
8gg	shi
8ff#	ta
[8ggJ	no
8ggL]	.
8ee	ri
8dd	ka
8eeJ	ra
=39	=39
8r	.
8bL	i
8b-X	ma
[8aJ	da
8aL]	.
8g	to
8a	ri
8gJ	mo
=40	=40
8aL	do
8b-X	se
8bn	to
[8ddJ	ko
8ddL]	.
8b	do
8a	ga
8bJ	na
=41	=41
8aL	ri
8b	da
8dd	shi
[8eeJ	so
2ee_	.
=42	=42
4ee]	.
4r	.
4c	breath
8ddL	i
[8eeJ	to
=43	=43
8eeL]	.
8dd	shi
8b	ku
[8aJ	te
2a_	.
=44	=44
2a]	.
8r	.
4c	breath
8a	tsu
=45	=45
8bL	ra
8a	ku
8g	te
[8ccJ	se
2cc]	.
=46	=46
[4.b	ka
16bLL]	.
16bJJ	i
2g	wo
=47	=47
2d	ki
4cc	ra
4r	.
=48	=48
2b	ta
2cc	hi
=49	=49
4.ee	to
[8dd	no
2dd_	.
=50	=50
2dd]	.
8r	.
4c	breath
8gg	hi
=51	=51
8ff#L	do
8dd	ku
8b	ri
[8eeJ	fu
8ee]	.
[4.dd	ji
=52	=52
8ddL]	.
8ddJ	n
4b	na
8dd	ko
4ee	o
16ggLL	se
16ggJJ	i
=53	=53
4r	.
4b	ko
8.aL	te
16aJk	i
8gL	shi
[8aJ	te
=54	=54
16aLL]	.
16aJJ	i
4g	cha
[8a	mi
8aL]	.
8b-X	ra
8a	i
8b-J	wa
=55	=55
8aL	u
8g	mi
8e	da
8gJ	se
[4.e	na
16eLL]	.
16eJJ	i
=56	=56
1r	.
=57	=57
8r	.
4.c	breath
4gg#X	sho
8gg#L	ne
8gg#J	n
=58	=58
8gg#XL	sho
8ff#	o
8ee	jo
8bbJ	ma
8bbL	e
8gg#	o
8ff#	mu
8gg#J	ku
=59	=59
8r	.
8cc#XL	ku
8ee	re
8ff#J	ru
8gg#XL	e
8gg#'	n
8gg#	te
8gg#J	n
=60	=60
8gg#XL	sa
8ff#	e
8ee	ki
[8ccc#XJ	bo
8ccc#L]	.
8bb	ro
8bb	n
8gg#J	da
=61	=61
8r	.
4ff#	te
[8cc#X	tsu
8cc#L]	.
8cc#	re
8ee	mo
8gg#XJ	do
=62	=62
4ff#	se
8r	.
[8cc#X	tsu
8cc#L]	.
8cc#	re
8ee	mo
8bbJ	do
=63	=63
4gg#X	se
8cc#XL	mi
[8ccc#XJ	ka
4ccc#]	.
4ggn	zu
=64	=64
8ff#L	ki
8eeJ	ga
8r	.
[8ff#	a
8ff#L]	.
8gg#X	ka
8ff#	ku
8gg#J	mo
=65	=65
8ff#L	e
8gg#X	a
8bb	ga
8gg#J	ru
4ccc#X	sa
4ccc#	sa
=66	=66
4gg#X	ko
8ff#L	do
8eeJ	o
8ff#L	ze
8ee	ro
8ff#	de
8eeJ	ki
=67	=67
8ggL	za
8gg#XJ	me
8r	.
[8ccc#X	so
4ccc#]	.
4ccc#	zo
=68	=68
8.gg#XL	ryo
16gg#Jk	ku
8ff#L	no
8eeJ	so
8ff#L	to
8ee	ga
8ff#	wa
8ggnJ	no
=69	=69
8gg#XL	se
[8eeeJ	ka
16eeeLL]	.
16eeeJ	i
[8ddd#XJ	e
4ddd#]	.
4gg#	o
=70	=70
8eeL	ba
8cc#X	a
8b	na
[8cc#J	ku
8cc#]	.
4ee	so
8ff#	se
=71	=71
8ff#L	n
[8eeJ	se
32eeKLL]	.
16.eeJ	n
[8cc#XJ	e
2cc#_	.
=72	=72
8cc#L]	.
8g#XJ	e は
4r	.
2r	.
=73	=73
1r	.
=74	=74
1r	.
=75	=75
1r	.
=76	=76
1r	.
=77	=77
1r	.
=78	=78
2r	.
4r	.
[4c	breath
=79	=79
8cL]	.
8B	o
8d	sa
8eJ	ki
8e	ni
4b	do
8a	zo
=80	=80
8r	.
4g	te
[8f#	shi
8f#L]	.
8g	ta
8f#	o
8dJ	da
=81	=81
4e'	su
8dL	yo
[8eJ	yu
8eL]	.
8bJ	bu
8r	.
[8a	ta
=82	=82
8a]	.
4g	mu
[8f#	ja
8f#L]	.
8d	ki
8B	na
8dJ	me
=83	=83
4c'	e は
8dL	ho
8d#XJ	ra
8eL	de
8b	ba
8b	n
8aJ	da
=84	=84
8r	.
4g	pa
[8f#	su
8f#L]	.
8g	wa
8f#	a
8dJ	do
=85	=85
4e'	de
8dL	me
8d#XJ	o
8eL	sa
[8bJ	ma
16bLL]	.
16bJ	shi
8aJ	ta
=86	=86
8r	.
4g	ja
[8dd	ja
8ddL]	.
8dd	u
8dd	ma
8ddJ	wa
=87	=87
8aL	to
8b	ma
8dd	ra
8eeJ	na
4ee'	i
4bb	mo
=88	=88
8aaL	yo
8gg	ru
8ff#	ga
8ggJ	fu
8ff#L	ka
8dd	ku
8ee	na
8ddJ	ru
=89	=89
8r	.
8bL	o
8b-X	ko
[8aJ	sa
8aL]	.
8g	ma
8a	na
8gJ	ra
=90	=90
8aL	mo
8b-X	e
8bn	ru
[8ddJ	e
16ddLL]	.
16ddJJ	n
4dd	cho
8dd	se
=91	=91
8dd'L	n
8b	gya
8dd	a
[8eeJ	kyo
4ee]	.
4bb	gu
=92	=92
8aaL	a
8gg	i
8ff#	ga
[8ggJ	ku
8ggL]	.
8ee	ru
8dd	da
8eeJ	ro
=93	=93
8r	.
8bL	ne
8b-X	re
[8aJ	na
16aLL]	.
16aJ	i
8gJ	ne
8aL	ma
8gJ	da
=94	=94
8aL	ma
8g	da
8a	ho
8gJ	ra
6b-X	ha
[12a	ya
16aKL]	.
8.gJ	ku
=95	=95
*^	*
4a'	8r	ha
.	4.g'	ya
4d	.	ku
8eL	2r	i
8e	.	n
8b	.	te
8bJ	.	n
*v	*v	*
=96	=96
8aL	po
8gJ	de
8r	.
[8f#	shi
8f#L]	.
8g	se
8f#	n
8gJ	o
=97	=97
8f#L	a
8g	wa
8f#	se
8dJ	te
8eL	ha
8eJ	i
4b'	ta
=98	=98
8aL	chi
8gJ	de
8r	.
[8dd	bi
8ddL]	.
8b	to
8a	ga
8bJ	na
=99	=99
8b-XL	ri
8bn	da
8b-X	se
8bnJ	ba
8eL	ka
8eJ	n
8.bL	ga
16bJk	e
=100	=100
8aL	te
8gJ	cha
8r	.
[8f#	o
8f#L]	.
8g	so
8f#	i
8c#XJ	de
=101	=101
4e	sho
8dL	ho
8d#XJ	ra
4e'	no
4b'	ka
=102	=102
8a	te
4g	ko
8f#	ze
2r	.
=103	=103
8r	.
4.c'	breath
8eL	wa
8eJ	n
4b	ko
=104	=104
8aL	do
8gJ	de
8r	.
[8f#	shi
8f#L]	.
8g	se
8f#	n
8gJ	o
=105	=105
8f#L	a
8g	wa
8f#	se
8dJ	te
4e'	bu
8.bL	to
16bJk	n
=106	=106
8a	da
4g	gu
[8dd	ru
8ddL]	.
8b	bu
8a	ga
8bJ	u
=107	=107
8b-XL	zu
8bn	ma
8b-X	ke
8bnJ	ba
4e	jo
8bL	da
8bJ	n
=108	=108
8aL	ja
[8gJ	na
16gLL]	.
16gJ	i
[8f#J	mi
8f#L]	.
8g	e
8f#	ru
8dJ	ha
=109	=109
4e'	zu
8dL	so
8d#XJ	no
8.eL	ha
16eJk	i
8bL	e
8bJ	n
=110	=110
8aL	do
8gJ	no
8r	.
[8dd	fu
8ddL]	.
8b	ke
8a	i
8bJ	no
=111	=111
8aL	su
8b	ki
8dd	ma
8dd#XJ	ni
4ee	sa
4bb	do
=112	=112
8.aaL	da
16aaJk	i
8ggL	ko
8ff#J	no
8.ggL	a
16ff#Jk	tsu
8eeL	sa
8ddJ	mo
=113	=113
8r	.
8aL	su
8b	re
8ddJ	chi
8.eeL	ga
16eeJk	i
4gg	so
=114	=114
4ff#'	da
8eeL	ta
8ddJ	ka
8eeL	chi
8dd	ka
8b	n
8ddJ	mo
=115	=115
8r	.
8eeL	wa
8dd	ru
8eeJ	ka
8.b-XL	na
16b-Jk	i
8aL	ka
8gJ	na
=116	=116
8r	.
4d	me
[8d	o
4d]	.
4g	hi
=117	=117
4a'	ra
4g	ki
4b	te
4dd	o
=118	=118
4ee	to
4gg	ri
4aa	a
4gg	a
=119	=119
4aa	ta
4bb	ra
8aaL	a
8aa	n
8gg	ga
8ggJ	i
=120	=120
4gg	chi
8eeL	pu
8ddJ	na
8ddL	ko
8gg	to
8ff#	ba
8ggJ	mo
=121	=121
8r	.
8ddL	a
8dd	i
8ddJ	ko
4aa	to
4gg	ba
=122	=122
4aa'	da
8ggL	te
8aaJ	i
8bbL	i
8ddd	a
8eee	e
8bbJ	ru
=123	=123
8r	.
8ddL	su
8ee	ko
8ggJ	shi
2aa	da
=124	=124
2bb	ke
4ddd	ma
4gg	e
=125	=125
4ff#	o
4gg	mu
8eee	ke
[4.ddd	ru
=126	=126
2ddd]	.
2r	.
=127	=127
2c	breath
4g#X	sho
8g#L	ne
8g#J	n
=128	=128
8g#XL	sho
8f#	o
8e	jo
8bJ	ma
8bL	e
8g#	o
8f#	mu
8g#J	ku
=129	=129
8r	.
8c#XL	yu
8e	re
8f#J	ru
8g#XL	e
8g#'	n
8g#	te
8g#J	n
=130	=130
8g#XL	su
8f#	ra
8e	ki
[8cc#XJ	bo
8cc#L]	.
8b	ro
8b	n
8g#J	da
=131	=131
8r	.
4f#	te
[8c#X	o
8c#L]	.
8c#	mo
8e	i
8g#XJ	da
=132	=132
4f#	shi
8r	.
[8c#X	ku
8c#L]	.
8c#	chi
8e	ni
8bJ	da
=133	=133
4g#X	su
8c#XL	fu
[8cc#XJ	ka
4cc#]	.
4gn	shi
=134	=134
4f#	gi
4e	na
8f#L	de
8g	a
8f#	i
8gJ	to
=135	=135
8f#L	wa
8g#X	ka
8b	re
8g#J	o
4cc#X	ne
4cc#	ne
=136	=136
4g#X'	to
8f#L	pi
8eJ	na
8f#L	se
8e	ka
8f#	i
8eJ	no
=137	=137
8gL	ko
8g#XJ	to
8r	.
[8cc#X	sa
8cc#L]	.
8cc#	n
8cc#	za
8cc#J	n
=138	=138
4g#X	da
8f#L	te
8eJ	wa
8f#L	ra
8e	i
8f#	to
8gnJ	ba
=139	=139
8g#XL	se
[8f#J	ta
16f#LL]	.
16f#J	n
[8eJ	da
4e]	.
4r	.
=140	=140
8.eL	a
16eJk	i
8c#XL	zu
8BJ	ga
8c#L	o
8e	wa
8e	ru
8cn'J	u は
=141	=141
4r	.
4bb-X	sho
8bb-L	ne
8bb-	n
8bb-	sho
8gg#XJ	o
=142	=142
8ff#L	jo
8ccc#X	ma
8ccc#	e
8bb-XJ	o
8gg#XL	mu
8bb-J	ku
8r	.
8dd#X	ku
=143	=143
8ff#L	ra
8gg#X	mu
8bb-X	e
8bb-'J	n
8bb-L	te
8bb-	n
8bb-	su
8gg#J	ra
=144	=144
8ff#	ki
4ddd#X	bo
8ccc#X	ro
8ccc#L	n
8bb-XJ	da
8r	.
[8gg#X	te
=145	=145
8gg#]	.
4dd#X	tsu
8dd#	ka
8ff#L	mi
8bb-XJ	to
4gg#X	re
=146	=146
8r	.
4dd#X	tsu
8dd#	ka
8ff#L	mi
8ccc#XJ	to
4bb-X	re
=147	=147
8dd#X	to
4.ddd#X	ta
4aa	i
4gg#X	yo
=148	=148
4ff#	ga
8gg#XL	a
8bb-XJ	ka
8gg#L	ku
8bb-	mo
8gg#	e
8bb-J	a
=149	=149
8ccc#XL	ga
8bb-XJ	ru
4ddd#X	sa
4ddd#	sa
4bb-	ko
=150	=150
8gg#XL	ru
8ff#	da
8gg#	sa
8ff#J	i
8gg#L	go
8ff#	no
8aa	shi
8bb-XJ	yo
=151	=151
8dL	breath
[8ddd#XJ	sa
6ddd#]	.
12ddd#'	i
7ddd#L	ze
14ddd#K	n
[7bb-X	sa
28bb-KL]	.
14.bb-'JJ	ku
=152	=152
*^	*
9r	4gg#X'	.
9ff#L	.	so
9gg#	.	no
.	4r	.
9ff#	.	me
9.gg#	.	o
.	2r	.
9aa	.	mi
9bb-X	.	hi
9.fff#J	.	ra
*v	*v	*
=153	=153
14fff#LL	i
[14fffnJJ	ta
7%2fff]	.
7%2bb-X	o
7ff#L	ba
7dd#XJ	a
=154	=154
*^	*
14r	4cc#X'	.
[14dd#XKL	.	mo
7.dd#]	.	.
.	4r	.
7.ff#	.	so
.	2r	.
7gg#X	.	se
7gg#	.	n
7ff#J	.	se
=155	=155	=155
4ff#'	16r	n
.	[8.dd#X	ka
24r	16dd#]	.
24dd#	.	n
.	16r	.
[6ff#	.	jo
.	8r	.
16ff#LL_	2r	.
16ff#J] [16gg#X	.	se
8gg#J_	.	.
24gg#LL]	.	.
24gg#JJ	.	i
[6bb-X	.	no
*v	*v	*
=156	=156
12bb-]	.
[6ddd#X	me
8ddd#L]	.
8bb-XJ	bi
14.aaLL	u
14.bb-J	su
7aa	no
7cc#XJ	sa
=157	=157
*^	*
12r	4dd'	.
[6dd#X	.	e
8dd#]	4r	.
8r	.	.
2r	2r	.
*v	*v	*
==	==
*-	*-
